X:3
T:Boston Boy, 3rd break B only
C:Ricky Skaggs &amp; Kentucky Thunder, Ancient Tones
Z:Created with TablEdit http://www.tabledit.com/
M:4/4
L:1/8
Q:100
K:C
z6[ed]e|egedcdeg|aggag2dc|BGG^FGABc|d2[ec][ec][e2c2][ed]e|egedcdeg| \
aggag2bb|bgagac'c'c'|ac'c'c'ac'c'c'|ac'c'c'ac'c'c'|ac'c'c'aggg| \
abbbaggg|[ee][ee][ee][ee]d[ec][e2c2]|d2[ed]ccd[ee]e|aggagBdc| \
B^FGFGFGE|D2[EC][EC][E4C4]| \
